X:1
T:8. Dance Song: TIle Lovers Bill alld Coo
T:08. Dance Song: The Lovers Bill and Coo
T:For Children Nr 8 , Sz 42 
T:Béla Bartók Revised and Arranged by the Composer, January 1945 
T:Book 2 (after Slovakian Folksongs)
%%score { 1 | ( 2 3 ) }
L:1/8
Q:1/4=120
M:2/4
K:C
V:1 treble nm="Piano" snm="Pno."
V:2 bass 
V:3 bass 
V:1
"^Allegro" z4 | z4 | z4 | z4 |!mp! !>!!tenuto!!3!B2 .!3!B.!3!B | !>!.c.B(AG) | %6
 .!2!^F.G !tenuto!!4!A2 | .!2!G.A B2 | !3!B2 .B.B | .!2!A.G(^FE) | .^F.G !>!!tenuto!A2 | %11
 .G.^F !>!!tenuto!E2 | !tenuto!B2 .B.B | !>!.c.B(AG) | .^F.G !>!!tenuto!A2 | .G.A B2 | %16
 !tenuto!B2 .B.B | .A.G(^FE) | .^F.G[Q:1/4=110]"^T""_calando" !>!!tenuto!A2 | %19
 .G.^F[Q:1/4=100]"^T" !tenuto!E2 |[Q:1/4=90]"^T" z4 |"^a tempo"[Q:1/4=120]"^T" z4 | B2 .B.B | %23
 .c.B(AG) | .^F.G !tenuto!A2 | .G.A !tenuto!B2 |!p!!<(! !tenuto!B2 .B.B!<)! | .A.G(^FE) | %28
 (.^F.G[Q:1/4=110]"^T""_smorzando" !tenuto!A2 | .G.^F[Q:1/4=100]"^T" !tenuto!E2) | z4 | %31
[Q:1/4=90]"^T" z4 |[Q:1/4=80]"^T" z4 | z4 |] %34
V:2
!p! .!5!!3!!1![E,G,B,].[E,G,B,] z [E,G,B,] | .[E,G,B,].[E,G,B,] z [E,G,B,] | %2
 .[E,G,B,].[E,G,B,] z [E,G,B,] | .[E,G,B,].[E,G,B,] z [E,G,B,] | .[E,G,B,].[E,G,B,] z [E,G,B,] | %5
 .[E,G,B,].[E,G,B,] z [E,G,B,] | .!5!!2!!1![E,A,C].[E,A,C] z .!5!!4!!1![E,^F,C] | %7
 .!5!!3!!1![E,G,B,].[E,G,B,] z .[E,G,B,] | .[E,G,B,].[E,G,B,] z .[E,G,B,] | %9
 .[E,G,B,].[E,G,B,] z .[E,G,B,] | .[E,A,C].[E,A,C] z .[E,^F,C] | .[E,G,B,].[E,G,B,] z .[E,G,B,] | %12
 .[E,G,B,].[E,G,B,] z .[E,G,B,] | .[E,G,B,].[E,G,B,] z .[E,G,B,] | %14
 .[E,A,C].[E,A,C] z .!4!!3!!1![E,^F,C] | .!5!!4!!2!!1![D,E,G,B,].[D,E,G,B,] z .[D,E,G,B,] | %16
 .[D,E,G,B,].[D,E,G,B,] z .[D,E,G,B,] | .!5!!4!!2!!1![C,E,G,B,].[C,E,G,B,] z .[C,E,G,B,] | %18
 .[C,E,G,B,].[C,E,G,B,] z .[C,E,G,B,] | .[C,E,G,B,].[C,E,G,B,] z .[C,E,G,B,] | %20
 .[C,E,G,_B,].[C,E,G,B,] z .[C,E,G,B,] | .[G,,D,]!p!.[G,,D,] z .[G,,D,] | %22
 .[G,,D,].[G,,D,] z .[G,,D,] | .[G,,D,].[G,,D,] z .[G,,D,] | .[G,,C,E,].[G,,C,E,] z .[G,,C,E,] | %25
 .[G,,D,].[G,,D,] z .[G,,D,] | z4 |!>(! (!4!!1![B,,E,]4-!>)! | E,3 ^D,) | z4 | %30
!pp!"^tranquillo" .[E,,B,,].[E,,B,,] z .[E,,B,,] | .[E,,B,,].[E,,B,,] z .[E,,B,,] | %32
 !tenuto!.[E,,B,,]2 !tenuto!.[E,,B,,]2 | z2 !tenuto!.[E,,B,,]2 |] %34
V:3
 x4 | x4 | x4 | x4 | x4 | x4 | x4 | x4 | x4 | x4 | x4 | x4 | x4 | x4 | x4 | x4 | x4 | x4 | x4 | %19
 x4 | x4 | x4 | x4 | x4 | x4 | x4 | x4 | x4 | B,,4 | x4 | x4 | x4 | x4 | x4 |] %34

